public/about us/Services.svg

<?xml version="1.0" encoding="iso-8859-1"?>
<!-- Generator: Adobe Illustrator 17.1.0, SVG Export Plug-In . SVG Version: 6.00 Build 0)  -->
<!DOCTYPE svg PUBLIC "-//W3C//DTD SVG 1.1//EN" "http://www.w3.org/Graphics/SVG/1.1/DTD/svg11.dtd">
<svg version="1.1" fill="#fff" id="0132" xmlns="http://www.w3.org/2000/svg" xmlns:xlink="http://www.w3.org/1999/xlink" x="0px" y="0px"
	 viewBox="0 0 231.233 231.233" style="enable-background:new 0 0 231.233 231.233;" xml:space="preserve">
<path d="M230.505,102.78c-0.365-3.25-4.156-5.695-7.434-5.695c-10.594,0-19.996-6.218-23.939-15.842
	c-4.025-9.855-1.428-21.346,6.465-28.587c2.486-2.273,2.789-6.079,0.705-8.721c-5.424-6.886-11.586-13.107-18.316-18.498
	c-2.633-2.112-6.502-1.818-8.787,0.711c-6.891,7.632-19.27,10.468-28.836,6.477c-9.951-4.187-16.232-14.274-15.615-25.101
	c0.203-3.403-2.285-6.36-5.676-6.755c-8.637-1-17.35-1.029-26.012-0.068c-3.348,0.37-5.834,3.257-5.723,6.617
	c0.375,10.721-5.977,20.63-15.832,24.667c-9.451,3.861-21.744,1.046-28.621-6.519c-2.273-2.492-6.074-2.798-8.725-0.731
	c-6.928,5.437-13.229,11.662-18.703,18.492c-2.133,2.655-1.818,6.503,0.689,8.784c8.049,7.289,10.644,18.879,6.465,28.849
	c-3.99,9.505-13.859,15.628-25.156,15.628c-3.666-0.118-6.275,2.345-6.68,5.679c-1.016,8.683-1.027,17.535-0.049,26.289
	c0.365,3.264,4.268,5.688,7.582,5.688c10.07-0.256,19.732,5.974,23.791,15.841c4.039,9.855,1.439,21.341-6.467,28.592
	c-2.473,2.273-2.789,6.07-0.701,8.709c5.369,6.843,11.537,13.068,18.287,18.505c2.65,2.134,6.504,1.835,8.801-0.697
	c6.918-7.65,19.295-10.481,28.822-6.482c9.98,4.176,16.258,14.262,15.645,25.092c-0.201,3.403,2.293,6.369,5.672,6.755
	c4.42,0.517,8.863,0.773,13.32,0.773c4.23,0,8.461-0.231,12.692-0.702c3.352-0.37,5.834-3.26,5.721-6.621
	c-0.387-10.716,5.979-20.626,15.822-24.655c9.514-3.886,21.752-1.042,28.633,6.512c2.285,2.487,6.063,2.789,8.725,0.73
	c6.916-5.423,13.205-11.645,18.703-18.493c2.135-2.65,1.832-6.503-0.689-8.788c-8.047-7.284-10.656-18.879-6.477-28.839
	c3.928-9.377,13.43-15.673,23.65-15.673l1.43,0.038c3.318,0.269,6.367-2.286,6.768-5.671
	C231.476,120.379,231.487,111.537,230.505,102.78z M115.616,182.27c-36.813,0-66.654-29.841-66.654-66.653
	s29.842-66.653,66.654-66.653s66.654,29.841,66.654,66.653c0,12.495-3.445,24.182-9.428,34.176l-29.186-29.187
	c2.113-4.982,3.229-10.383,3.228-15.957c0-10.915-4.251-21.176-11.97-28.893c-7.717-7.717-17.978-11.967-28.891-11.967
	c-3.642,0-7.267,0.484-10.774,1.439c-1.536,0.419-2.792,1.685-3.201,3.224c-0.418,1.574,0.053,3.187,1.283,4.418
	c0,0,14.409,14.52,19.23,19.34c0.505,0.505,0.504,1.71,0.433,2.144l-0.045,0.317c-0.486,5.3-1.423,11.662-2.196,14.107
	c-0.104,0.103-0.202,0.19-0.308,0.296c-0.111,0.111-0.213,0.218-0.32,0.328c-2.477,0.795-8.937,1.743-14.321,2.225l0.001-0.029
	l-0.242,0.061c-0.043,0.005-0.123,0.011-0.229,0.011c-0.582,0-1.438-0.163-2.216-0.94c-5.018-5.018-18.862-18.763-18.862-18.763
	c-1.242-1.238-2.516-1.498-3.365-1.498c-1.979,0-3.751,1.43-4.309,3.481c-3.811,14.103,0.229,29.273,10.546,39.591
	c7.719,7.718,17.981,11.968,28.896,11.968c5.574,0,10.975-1.115,15.956-3.228l29.503,29.503
	C141.125,178.412,128.825,182.27,115.616,182.27z"/>
<g>
</g>
<g>
</g>
<g>
</g>
<g>
</g>
<g>
</g>
<g>
</g>
<g>
</g>
<g>
</g>
<g>
</g>
<g>
</g>
<g>
</g>
<g>
</g>
<g>
</g>
<g>
</g>
<g>
</g>
</svg>

<svg width="232" height="232" viewBox="0 0 232 232" fill="none" xmlns="http://www.w3.org/2000/svg">
<g clip-path="url(#clip0_3_135)">
<path d="M230.505 102.78C230.14 99.53 226.349 97.085 223.071 97.085C212.477 97.085 203.075 90.867 199.132 81.243C195.107 71.388 197.704 59.897 205.597 52.656C208.083 50.383 208.386 46.577 206.302 43.935C200.878 37.049 194.716 30.828 187.986 25.437C185.353 23.325 181.484 23.619 179.199 26.148C172.308 33.78 159.929 36.616 150.363 32.625C140.412 28.438 134.131 18.351 134.748 7.524C134.951 4.121 132.463 1.164 129.072 0.769001C120.435 -0.230999 111.722 -0.259999 103.06 0.701001C99.712 1.071 97.226 3.958 97.337 7.318C97.712 18.039 91.36 27.948 81.505 31.985C72.054 35.846 59.761 33.031 52.884 25.466C50.611 22.974 46.81 22.668 44.159 24.735C37.231 30.172 30.93 36.397 25.456 43.227C23.323 45.882 23.638 49.73 26.145 52.011C34.194 59.3 36.789 70.89 32.61 80.86C28.62 90.365 18.751 96.488 7.45401 96.488C3.78801 96.37 1.17901 98.833 0.774006 102.167C-0.241994 110.85 -0.252994 119.702 0.725006 128.456C1.09001 131.72 4.99301 134.144 8.30701 134.144C18.377 133.888 28.039 140.118 32.098 149.985C36.137 159.84 33.537 171.326 25.631 178.577C23.158 180.85 22.842 184.647 24.93 187.286C30.299 194.129 36.467 200.354 43.217 205.791C45.867 207.925 49.721 207.626 52.018 205.094C58.936 197.444 71.313 194.613 80.84 198.612C90.82 202.788 97.098 212.874 96.485 223.704C96.284 227.107 98.778 230.073 102.157 230.459C106.577 230.976 111.02 231.232 115.477 231.232C119.707 231.232 123.938 231.001 128.169 230.53C131.521 230.16 134.003 227.27 133.89 223.909C133.503 213.193 139.869 203.283 149.712 199.254C159.226 195.368 171.464 198.212 178.345 205.766C180.63 208.253 184.408 208.555 187.07 206.496C193.986 201.073 200.275 194.851 205.773 188.003C207.908 185.353 207.605 181.5 205.084 179.215C197.037 171.931 194.428 160.336 198.607 150.376C202.535 140.999 212.037 134.703 222.257 134.703L223.687 134.741C227.005 135.01 230.054 132.455 230.455 129.07C231.476 120.379 231.487 111.537 230.505 102.78ZM115.616 182.27C78.803 182.27 48.962 152.429 48.962 115.617C48.962 78.805 78.804 48.964 115.616 48.964C152.428 48.964 182.27 78.805 182.27 115.617C182.27 128.112 178.825 139.799 172.842 149.793L143.656 120.606C145.769 115.624 146.885 110.223 146.884 104.649C146.884 93.734 142.633 83.473 134.914 75.756C127.197 68.039 116.936 63.789 106.023 63.789C102.381 63.789 98.756 64.273 95.249 65.228C93.713 65.647 92.457 66.913 92.048 68.452C91.63 70.026 92.101 71.639 93.331 72.87C93.331 72.87 107.74 87.39 112.561 92.21C113.066 92.715 113.065 93.92 112.994 94.354L112.949 94.671C112.463 99.971 111.526 106.333 110.753 108.778C110.649 108.881 110.551 108.968 110.445 109.074C110.334 109.185 110.232 109.292 110.125 109.402C107.648 110.197 101.188 111.145 95.804 111.627L95.805 111.598L95.563 111.659C95.52 111.664 95.44 111.67 95.334 111.67C94.752 111.67 93.896 111.507 93.118 110.73C88.1 105.712 74.256 91.967 74.256 91.967C73.014 90.729 71.74 90.469 70.891 90.469C68.912 90.469 67.14 91.899 66.582 93.95C62.771 108.053 66.811 123.223 77.128 133.541C84.847 141.259 95.109 145.509 106.024 145.509C111.598 145.509 116.999 144.394 121.98 142.281L151.483 171.784C141.125 178.412 128.825 182.27 115.616 182.27Z" fill="#303030"/>
</g>
<defs>
<clipPath id="clip0_3_135">
<rect width="231.233" height="231.233" fill="white"/>
</clipPath>
</defs>
</svg>
